X: 5
T: Bound to Have a Little Fun
R: reel, polka
S: Fiddle Hell Online 2021-10-13 Portland Collection Jam handout
B: PC3 p.17
Z: 2022 John Chambers <jc:trillian.mit.edu>
M: C|
L: 1/8
K: G
%%continueall
"^A"|: DE |\
"G"G2B2 AGAB | G2[B2G2] [B2G2]DE | G2B2 AG-G2 | "C"E4 E2GE ||\
"G"DEGB AGAG | B2G2 DCB,C | "D"D2D2 EDEF | "G"G4 G2 :|
"^B"|: ef |\
"G"g2ga ged2 | edBc d4 | "C"e4 efgf | "G"edBc d2ef ||\
"G"g2ga ged2 | edBc d2B2 | "D"A2A2 BAG2 | "C"E4 E2 :|


